src/pos-icons/star-face.svg

<svg height="24" viewBox="0 0 24 24" width="24" xmlns="http://www.w3.org/2000/svg"><path d="m12 2.5-3.58 5.56-6.42 1.68 4.2 5.14-.38 6.62 6.18-2.41 6.18 2.41-.38-6.62 4.2-5.14-6.42-1.68zm-2.62 8c.62 0 1.12.5 1.12 1.13a1.12 1.12 0 0 1 -1.12 1.12c-.63 0-1.13-.5-1.13-1.12 0-.63.5-1.13 1.13-1.13m5.25 0c.62 0 1.12.5 1.12 1.13a1.12 1.12 0 0 1 -1.12 1.12c-.63 0-1.13-.5-1.13-1.12 0-.63.5-1.13 1.13-1.13m-5.63 4.5h6c-.5 1.21-1.69 2-3 2s-2.5-.79-3-2z"/></svg>

<?xml version="1.0" encoding="UTF-8"?><!DOCTYPE svg PUBLIC "-//W3C//DTD SVG 1.1//EN" "http://www.w3.org/Graphics/SVG/1.1/DTD/svg11.dtd"><svg xmlns="http://www.w3.org/2000/svg" xmlns:xlink="http://www.w3.org/1999/xlink" version="1.1" id="mdi-star-face" width="24" height="24" viewBox="0 0 24 24"><path d="M12,2.5L8.42,8.06L2,9.74L6.2,14.88L5.82,21.5L12,19.09L18.18,21.5L17.8,14.88L22,9.74L15.58,8.06L12,2.5M9.38,10.5C10,10.5 10.5,11 10.5,11.63A1.12,1.12 0 0,1 9.38,12.75C8.75,12.75 8.25,12.25 8.25,11.63C8.25,11 8.75,10.5 9.38,10.5M14.63,10.5C15.25,10.5 15.75,11 15.75,11.63A1.12,1.12 0 0,1 14.63,12.75C14,12.75 13.5,12.25 13.5,11.63C13.5,11 14,10.5 14.63,10.5M9,15H15C14.5,16.21 13.31,17 12,17C10.69,17 9.5,16.21 9,15Z" /></svg>
